!!!SOCIAL_FUNCTION:	songs with treatment of the sick
!!!PDT:	1943
!!!OTL: No_18_This_Song_Cheers_Me.krn
!!!REG: British Columbia
**kern	**kern
*staff2	*staff1
=1-	=1-
*clefF4	*clefF4
*k[f#]	*k[f#]
*M2/4	*M2/4
8GG/L	(4B\
8GG/J	.
8GG/L	12B\L)
.	12A\
8GG/J	.
.	12B\J
=2	=2
8GG/L	4.e\
8GG/J	.
4r	.
.	8B\
=3	=3
2r	4.A\
.	8r
=4||	=4||
*M3/4	*M3/4
2.r	(4B\
.	12B\L)
.	12A\
.	12G\J
.	8A\L
.	16G\L
.	16E\JJ
=5	=5
2.r	4.E\
.	8r
.	8.B\L
.	16e\Jk
=6	=6
2.r	(4B\
.	12B\L)
.	12A\
.	12G\J
.	8A\L
.	16G\L
.	16E\JJ
=7||	=7||
*M2/4	*M2/4
2r	8E\
.	16r
.	16D\
.	8.E\L
.	16D\Jk
=8	=8
2r	2BB/
=9	=9
2r	2r
=10	=10
2r	8.G\L
.	16E\Jk
.	8E\L
.	16E\L
.	16D\JJ
=11	=11
2r	8.D/L
.	16BB/Jk
.	4BB/
=12	=12
2r	2BB/
==	==
*-	*-
